X: 520
T: the Bush on the Hill
R: reel, air
%S: s:4 b:16(4+4+4+4)
B: O'Neill's 1850 #520
O: F.O'Neill
Z: Transcribed by Dave Wooldridge
Q: "Moderate"
M: C
L: 1/8
K: G
G | (dBAG) (g2fe) | (dBAG) (B2AB) | (cdef) (gfed) | f3e d2z ||
| G | d2(cB) e3d | (cBAG) A3B | (cdef) (gdec) | B2(A>G) G2z |]
|| G | g>aba g(fe)d | B>AB>c B3d | e(fg)a g(fe)d | B(dg)f e2 ||
| ge | (dB)(AG) B(dg)e | (dB)(AG) {B}A3B | (c>Bcd) ~e>fHge | dBA>G G3 |]
